!!!COM: alex-syntek-and-ana-torroja
!!!OTL: duele-el-amor
!!!RNB: hooktheoryid: YRzojGKwmDe
**kern	**text
*clefG2	*
*k[f#c#g#]	*
*M4/4	*
=1	=1
8f#	D
8g#	.
8a	.
8b	.
2cc#	.
=2	=2
4r	D
4ee	.
[4bL	.
4b]J	E
=3	=3
8b	F#m
8cc#	.
8b	.
8a	.
2f#	.
=4	=4
4r	F#m
16e	.
8.e	.
2f#	.
=5	=5
8f#	D
8g#	.
8a	.
8b	.
2cc#	.
=6	=6
4r	D
4ee	.
2b	.
=7	=7
8b	F#m
8cc#	.
8b	.
8a	.
2f#	.
=8	=8
4r	F#m
4b	.
2a	.
=9	=9
8ff#	D
8ff#	.
8ff#	.
8ff#	.
4ff#	.
4gg#	.
=10	=10
4ff#	D
4ee	.
4cc#	.
4ee	.
=11	=11
8ee	F#m
8ee	.
8ee	.
8ee	.
4ee	.
4ff#	.
=12	=12
2cc#	F#m
2r	.
=13	=13
8ff#	D
8ff#	.
8ff#	.
8ff#	.
4ff#	.
4gg#	.
=14	=14
4ff#	D
4ee	.
4cc#	.
4ee	.
=15	=15
8ee	F#m
8ee	.
8ee	.
8ee	.
4ee	.
4ff#	.
=16	=16
2cc#	F#m
2r	.
*-	*-